X:61
T:The Dexterity Hornpipe
R:hornpipe
C: 1988, 2010 L.E. McCullough 
M:4/4
L:1/8
K:Gmajor
|:GDGB AGFG|AGBE DEFA|~G3B cBGE|BAGB ~A3F|
G~D3 GFED|(3EFG AB c2AG|~F2GA ~F2GA|1GFED (3Bcd BA:|2GFED ~G3d|| 
|:~e3d gfdB|cdeg dedB|eage aged|~e2dc d2 (3def|
~g3f gfdB|cdeg dBAG|~F2GA ~F2GA|1DFAB G2 zd:|2DFAB ~G3F|| 
<end>
<start>
